X: 45
T: Knickle Schottische
M:4/4
L:1/8
R:Schottische
S:Viola "Mom" Ruth - Pioneer Western Folk Tunes (1948)
Z:AK/Fiddler's Companion
K:G
d2B2 B>AG>B|d2 B>d c>BA>B|c2A2 D>FA>B|c2B2 B>AG>B|
d2B2 B>AG>B|d2 B>d c>B A2|f>gf>e d>cB>A|G2 g2 g>fg>a||
b2d2 d>^cd>^d|e2A2 A>B A2|f>gf>e d>=cB>A|G2g2 g>fg>a|
b2d2 d>^cd>^d|e2A2 A>B A2|f2 g>e d>cB>A|G2 g2g2 z2||

%%sep 1 1 500
